actions/24/rabbitvcs-checkmods.svg

<?xml version="1.0" encoding="UTF-8" standalone="no"?>
<svg
   width="24"
   height="24"
   version="1.1"
   id="svg9"
   sodipodi:docname="rabbitvcs-checkmods.svg"
   inkscape:version="1.1.2 (0a00cf5339, 2022-02-04)"
   xmlns:inkscape="http://www.inkscape.org/namespaces/inkscape"
   xmlns:sodipodi="http://sodipodi.sourceforge.net/DTD/sodipodi-0.dtd"
   xmlns="http://www.w3.org/2000/svg"
   xmlns:svg="http://www.w3.org/2000/svg">
  <sodipodi:namedview
     id="namedview11"
     pagecolor="#000000"
     bordercolor="#666666"
     borderopacity="1.0"
     inkscape:pageshadow="2"
     inkscape:pageopacity="0"
     inkscape:pagecheckerboard="0"
     showgrid="false"
     inkscape:zoom="28.416667"
     inkscape:cx="11.982405"
     inkscape:cy="11.964809"
     inkscape:window-width="1482"
     inkscape:window-height="967"
     inkscape:window-x="0"
     inkscape:window-y="29"
     inkscape:window-maximized="1"
     inkscape:current-layer="g7" />
  <defs
     id="defs3">
    <style
       id="current-color-scheme"
       type="text/css">
   .ColorScheme-Text { color:#eeeeec; } .ColorScheme-Highlight { color:#367bf0; } .ColorScheme-NeutralText { color:#ffcc44; } .ColorScheme-PositiveText { color:#3db47e; } .ColorScheme-NegativeText { color:#dd4747; }
  </style>
  </defs>
  <g
     transform="translate(4,4)"
     id="g7">
    <path
       style="fill:currentColor"
       class="ColorScheme-Text"
       d="M 5,0 C 2.23,0 0,2.23 0,5 0,7.77 2.23,10 5,10 H 7 V 8 H 5 C 3.338,8 2,6.662 2,5 2,3.338 3.338,2 5,2 H 7 V 0 Z m 4,0 v 2 h 2 c 1.662,0 3,1.338 3,3 0,1.662 -1.338,3 -3,3 H 9 v 2 h 2 C 13.77,10 16,7.77 16,5 16,2.23 13.77,0 11,0 Z M 5,4 v 2 h 6 V 4 Z m 0,8 3,4 v 0 z"
       id="path5"
       sodipodi:nodetypes="sssccsssccsccsssccssscccccccccc" />
  </g>
</svg>

<svg xmlns="http://www.w3.org/2000/svg" width="24" height="24" version="1.1">
 <defs>
  <style id="current-color-scheme" type="text/css">
   .ColorScheme-Text { color:#eeeeec; } .ColorScheme-Highlight { color:#367bf0; } .ColorScheme-NeutralText { color:#ffcc44; } .ColorScheme-PositiveText { color:#3db47e; } .ColorScheme-NegativeText { color:#dd4747; }
  </style>
 </defs>
 <g transform="translate(4,4)">
  <path style="fill:currentColor" class="ColorScheme-Text" d="M 5,0 C 2.23,0 0,2.23 0,5 0,7.77 2.23,10 5,10 H 7 V 8 H 5 C 3.338,8 2,6.662 2,5 2,3.338 3.338,2 5,2 H 7 V 0 Z M 9,0 V 2 H 11 C 12.662,2 14,3.338 14,5 14,6.662 12.662,8 11,8 H 9 V 10 H 11 C 13.77,10 16,7.77 16,5 16,2.23 13.77,0 11,0 Z M 5,4 V 6 H 11 V 4 Z M 5,12 8,16 11,12 Z"/>
 </g>
</svg>
